X:1
T: Fleur-de-Lis
N:
C:Tune is "The Lover's Petition"
S:
A:
O:
R:
M:4/4
K:Am
I:speed 200
%W: A1
% voice 1 (1 lines, 40 notes)
K:Am
M:4/4
L:1/16
A4 E4 A4 e4 |d2 c2 B2 A2 ^G2 ^F2 E4 |A6 B2 c2 B2 c2 d2 |e4 e2 d2 c8 |e4 d2 c2 A4 A4 |d4 c2 B2 ^G2 ^F2 E4 |A6 B2 c4 B4 |G4 ^F2 E2 E8 |
%W: A2
% voice 1 (1 lines, 40 notes)
A4 E4 A4 e4 |d2 c2 B2 A2 ^G2 ^F2 E4 |A6 B2 c2 B2 c2 d2 |e4 e2 d2 c8 |e4 d2 c2 A4 A4 |d4 c2 B2 ^G2 ^F2 E4 |A6 B2 c4 B4 |G4 ^F2 E2 E8 |
%W: B1
% voice 1 (1 lines, 40 notes)
E6 ^F2 G4 G4 |A4 B2 c2 B2 A2 G4 |c6 B2 A4 d4 |d2 f2 e2 d2 c8 |d2 e2 f2 d2 B4 c2 d2 |e4 A4 ^G2 ^F2 E4 |A6 ^G2 A2 B2 c2 d2 |e4 e4 A8 |
%W: B2
% voice 1 (1 lines, 40 notes)
E6 ^F2 G4 G4 |A4 B2 c2 B2 A2 G4 |c6 B2 A4 d4 |d2 f2 e2 d2 c8 |d2 e2 f2 d2 B4 c2 d2 |e4 A4 ^G2 ^F2 E4 |A6 ^G2 A2 B2 c2 d2 |e4 e4 A8 ||
